X:1
T: Captain White
C:
R:Jig
Q:180
K:D
M:6/8
L:1/16
A2|D2F2A2 d4f2|e2d2c2 B4d2|A4d2 F4B2|A2G2F2 E4F2|
D2F2A2 d4f2|e2d2c2 B4d2|A4d2 F4B2|A2B2c2 d4f2|
e2^d2e2 A4f2|e2^d2e2 a4f2|e2f2e2 d2c2B2|A4B2 c4f2|
e2^d2e2 A4f2|e2^d2e2 a4f2|e2f2e2 d2c2B2|A2B2A2 G2F2E2|
D4f2 f2e2f2|d4A2 A4A2|A4f2 f2e2f2|g4e2 e4e2|
A4f2 f2e2f2|d4A2 A4A2|B2c2d2 e2d2c2|B2A2G2 F2G2A2|
D2F2A2 d4f2|e2d2c2 B4d2|A4d2 F4B2|A2G2F2 E4F2|
D2F2A2 d4f2|e2d2c2 B4d2|A4d2 F4B2|A2B2c2 d4||
